X:3001
T:Suutarivaimon kehtolaulu
T:Keit\"a te ootte
C:anon.
O:Finland
R:Children's song
Z:Transcribed by Frank Nordberg - http://www.musicaviva.com
F:http://abc.musicaviva.com/tunes/finland/suutarivaimon-kehtola.abc
M:C|
L:1/8
K:D
"D"A2AAA2GG|"D"F2F2F2E2|"D"D2DDD2C2|"G"B,4B,4|
"A7"G2GGG2FF|"A7"E2EEE2DD|"A7"C2A,2B,2C2|"D"D4D4|]
W:
W:
W:  From Musica Viva - http://www.musicaviva.com
W:  the Internet center for free sheet music downloads.

